build/img/question.svg

<svg width="14" height="15" viewBox="0 0 14 15" fill="none" xmlns="http://www.w3.org/2000/svg">
<g filter="url(#filter0_b_1_818)">
<path d="M7 0.75C8.3125 0.768229 9.48828 1.08724 10.5273 1.70703C11.5846 2.32682 12.4232 3.16536 13.043 4.22266C13.6628 5.26172 13.9818 6.4375 14 7.75C13.9818 9.0625 13.6628 10.2383 13.043 11.2773C12.4232 12.3346 11.5846 13.1732 10.5273 13.793C9.48828 14.4128 8.3125 14.7318 7 14.75C5.6875 14.7318 4.51172 14.4128 3.47266 13.793C2.41536 13.1732 1.57682 12.3346 0.957031 11.2773C0.33724 10.2383 0.0182292 9.0625 0 7.75C0.0182292 6.4375 0.33724 5.26172 0.957031 4.22266C1.57682 3.16536 2.41536 2.32682 3.47266 1.70703C4.51172 1.08724 5.6875 0.768229 7 0.75ZM7 11.6875C7.23698 11.6875 7.4375 11.6055 7.60156 11.4414C7.78385 11.2773 7.875 11.0677 7.875 10.8125C7.875 10.5573 7.78385 10.3477 7.60156 10.1836C7.4375 10.0195 7.23698 9.9375 7 9.9375C6.45312 9.99219 6.16146 10.2839 6.125 10.8125C6.125 11.0677 6.20703 11.2773 6.37109 11.4414C6.53516 11.6055 6.74479 11.6875 7 11.6875ZM8.88672 7.80469C9.50651 7.40365 9.82552 6.85677 9.84375 6.16406C9.82552 5.61719 9.63411 5.16146 9.26953 4.79688C8.90495 4.45052 8.4401 4.26823 7.875 4.25H6.48047C5.95182 4.26823 5.50521 4.45052 5.14062 4.79688C4.79427 5.16146 4.61198 5.61719 4.59375 6.16406C4.63021 6.5651 4.84896 6.78385 5.25 6.82031C5.65104 6.78385 5.86979 6.5651 5.90625 6.16406C5.92448 5.79948 6.125 5.59896 6.50781 5.5625H7.90234C8.28516 5.59896 8.49479 5.79948 8.53125 6.16406C8.53125 6.40104 8.43099 6.57422 8.23047 6.68359L6.67188 7.61328C6.45312 7.75911 6.34375 7.95052 6.34375 8.1875V8.625C6.38021 9.02604 6.59896 9.24479 7 9.28125C7.40104 9.24479 7.61979 9.02604 7.65625 8.625V8.57031L8.88672 7.80469Z" fill="white" fill-opacity="0.4"/>
</g>
<defs>
<filter id="filter0_b_1_818" x="-11.4729" y="-10.7229" width="36.9457" height="36.9457" filterUnits="userSpaceOnUse" color-interpolation-filters="sRGB">
<feFlood flood-opacity="0" result="BackgroundImageFix"/>
<feGaussianBlur in="BackgroundImageFix" stdDeviation="5.73643"/>
<feComposite in2="SourceAlpha" operator="in" result="effect1_backgroundBlur_1_818"/>
<feBlend mode="normal" in="SourceGraphic" in2="effect1_backgroundBlur_1_818" result="shape"/>
</filter>
</defs>
</svg>

<svg width="14" height="15" fill="none" xmlns="http://www.w3.org/2000/svg"><g filter="url(#filter0_b_1_818)"><path d="M7 .75c1.313.018 2.488.337 3.527.957a6.935 6.935 0 012.516 2.516c.62 1.039.939 2.215.957 3.527-.018 1.313-.337 2.488-.957 3.527a6.935 6.935 0 01-2.516 2.516c-1.039.62-2.214.939-3.527.957-1.313-.018-2.488-.337-3.527-.957a6.935 6.935 0 01-2.516-2.516C.337 10.238.018 9.063 0 7.75c.018-1.313.337-2.488.957-3.527a6.935 6.935 0 012.516-2.516C4.512 1.087 5.688.768 7 .75zm0 10.938a.818.818 0 00.602-.247.808.808 0 00.273-.629.808.808 0 00-.273-.628A.818.818 0 007 9.938c-.547.054-.839.346-.875.874 0 .256.082.465.246.63a.852.852 0 00.629.245zm1.887-3.883c.62-.401.939-.948.957-1.64-.018-.548-.21-1.004-.574-1.368-.365-.346-.83-.529-1.395-.547H6.48c-.528.018-.975.2-1.34.547-.346.364-.528.82-.546 1.367.036.401.255.62.656.656.401-.036.62-.255.656-.656.018-.365.219-.565.602-.601h1.394c.383.036.593.236.63.601 0 .237-.101.41-.302.52l-1.558.93c-.219.145-.328.337-.328.574v.437c.036.401.255.62.656.656.401-.036.62-.255.656-.656V8.57l1.23-.765z" fill="#fff" fill-opacity=".4"/></g><defs><filter id="filter0_b_1_818" x="-11.473" y="-10.723" width="36.946" height="36.946" filterUnits="userSpaceOnUse" color-interpolation-filters="sRGB"><feFlood flood-opacity="0" result="BackgroundImageFix"/><feGaussianBlur in="BackgroundImageFix" stdDeviation="5.736"/><feComposite in2="SourceAlpha" operator="in" result="effect1_backgroundBlur_1_818"/><feBlend in="SourceGraphic" in2="effect1_backgroundBlur_1_818" result="shape"/></filter></defs></svg>
